img/icon5.svg

<svg width="76" height="63" viewBox="0 0 76 63" fill="none" xmlns="http://www.w3.org/2000/svg">
<rect width="76" height="63" fill="white"/>
<path d="M75 1H1V62H75V1Z" stroke="black" stroke-width="2"/>
<path d="M50.003 31.454V47.1358H34.7777V16.4427H46.1953V22.9711H47.2405C47.5813 22.9711 47.9144 23.0719 48.1978 23.2609C48.4811 23.4498 48.702 23.7184 48.8324 24.0326C48.9628 24.3468 48.9969 24.6925 48.9304 25.0261C48.8639 25.3596 48.6998 25.666 48.4589 25.9065C48.2179 26.147 47.9109 26.3107 47.5767 26.3771C47.2424 26.4434 46.896 26.4094 46.5812 26.2792C46.2663 26.1491 45.9973 25.9287 45.808 25.6459C45.6186 25.3631 45.5176 25.0307 45.5176 24.6906H43.4672C43.4682 25.3887 43.6642 26.0727 44.0332 26.6657C44.4023 27.2588 44.9297 27.7374 45.5562 28.0479C46.1827 28.3583 46.8836 28.4882 47.58 28.4231C48.2765 28.358 48.941 28.1003 49.4988 27.6791C50.0566 27.2579 50.4857 26.6899 50.7379 26.0387C50.9901 25.3876 51.0553 24.6791 50.9264 23.993C50.7974 23.3069 50.4793 22.6702 50.0077 22.1546C49.5362 21.6389 48.93 21.2647 48.2571 21.0739V16.4542H55.0743L46.7179 8H12V16.4542H24.0608V39.805H13.9929V57H63V31.454H50.003ZM14.0503 14.3908V10.0405H45.8564L50.1581 14.3908H14.0503ZM26.1112 16.4427H32.6929V47.1358H30.6425V39.7935H26.1112V16.4427ZM60.921 54.9366H16.0432V41.8455H28.621V49.182H52.0534V33.5059H60.9497L60.921 54.9366Z" fill="#201600"/>
</svg>

<svg width="76" height="63" fill="none" xmlns="http://www.w3.org/2000/svg"><path fill="#fff" d="M0 0h76v63H0z"/><path d="M75 1H1v61h74V1z" stroke="#000" stroke-width="2"/><path d="M50.003 31.454v15.682H34.778V16.443h11.417v6.528h1.045a1.725 1.725 0 011.592 1.062 1.716 1.716 0 01-1.255 2.344 1.726 1.726 0 01-1.769-.731 1.716 1.716 0 01-.29-.955h-2.05a3.748 3.748 0 002.088 3.357 3.769 3.769 0 003.943-.369 3.755 3.755 0 001.427-3.686 3.75 3.75 0 00-2.669-2.92v-4.619h6.817L46.718 8H12v8.454h12.06v23.351H13.994V57H63V31.454H50.003zM14.05 14.391v-4.35h31.806l4.302 4.35H14.05zm12.061 2.052h6.582v30.693h-2.05v-7.343H26.11v-23.35zm34.81 38.494H16.043V41.846h12.578v7.336h23.432V33.506h8.897l-.029 21.43z" fill="#201600"/></svg>
